public/sweet-icon.svg

<svg xmlns="http://www.w3.org/2000/svg" xmlns:xlink="http://www.w3.org/1999/xlink" width="256" zoomAndPan="magnify" viewBox="0 0 192 191.999996" height="256" preserveAspectRatio="xMidYMid meet" version="1.0"><defs><clipPath id="74b9aa744c"><path d="M 123 26 L 189 26 L 189 81 L 123 81 Z M 123 26 " clip-rule="nonzero"/></clipPath><clipPath id="80902e3dbf"><path d="M -14.457031 75.792969 L 179.96875 19.183594 L 206.597656 110.636719 L 12.167969 167.246094 Z M -14.457031 75.792969 " clip-rule="nonzero"/></clipPath><clipPath id="3e2813b616"><path d="M -14.457031 75.792969 L 179.96875 19.183594 L 206.597656 110.636719 L 12.167969 167.246094 Z M -14.457031 75.792969 " clip-rule="nonzero"/></clipPath><clipPath id="51e92c3320"><path d="M 141 48 L 165 48 L 165 67 L 141 67 Z M 141 48 " clip-rule="nonzero"/></clipPath><clipPath id="76eccb601d"><path d="M -14.457031 75.792969 L 179.96875 19.183594 L 206.597656 110.636719 L 12.167969 167.246094 Z M -14.457031 75.792969 " clip-rule="nonzero"/></clipPath><clipPath id="5e848baac6"><path d="M -14.457031 75.792969 L 179.96875 19.183594 L 206.597656 110.636719 L 12.167969 167.246094 Z M -14.457031 75.792969 " clip-rule="nonzero"/></clipPath><clipPath id="e3f37ef00b"><path d="M 6 103 L 68 103 L 68 162 L 6 162 Z M 6 103 " clip-rule="nonzero"/></clipPath><clipPath id="170f24f829"><path d="M -14.457031 75.792969 L 179.96875 19.183594 L 206.597656 110.636719 L 12.167969 167.246094 Z M -14.457031 75.792969 " clip-rule="nonzero"/></clipPath><clipPath id="2b4cf96170"><path d="M -14.457031 75.792969 L 179.96875 19.183594 L 206.597656 110.636719 L 12.167969 167.246094 Z M -14.457031 75.792969 " clip-rule="nonzero"/></clipPath><clipPath id="a255e80736"><path d="M 26 116 L 50 116 L 50 135 L 26 135 Z M 26 116 " clip-rule="nonzero"/></clipPath><clipPath id="e9022babc4"><path d="M -14.457031 75.792969 L 179.96875 19.183594 L 206.597656 110.636719 L 12.167969 167.246094 Z M -14.457031 75.792969 " clip-rule="nonzero"/></clipPath><clipPath id="1270149d49"><path d="M -14.457031 75.792969 L 179.96875 19.183594 L 206.597656 110.636719 L 12.167969 167.246094 Z M -14.457031 75.792969 " clip-rule="nonzero"/></clipPath><clipPath id="d87c5d22a8"><path d="M 114 55 L 138 55 L 138 96 L 114 96 Z M 114 55 " clip-rule="nonzero"/></clipPath><clipPath id="cb0d6a824f"><path d="M -14.457031 75.792969 L 179.96875 19.183594 L 206.597656 110.636719 L 12.167969 167.246094 Z M -14.457031 75.792969 " clip-rule="nonzero"/></clipPath><clipPath id="188a2af05b"><path d="M -14.457031 75.792969 L 179.96875 19.183594 L 206.597656 110.636719 L 12.167969 167.246094 Z M -14.457031 75.792969 " clip-rule="nonzero"/></clipPath><clipPath id="a4cf7435be"><path d="M 51 93 L 73 93 L 73 131 L 51 131 Z M 51 93 " clip-rule="nonzero"/></clipPath><clipPath id="464912bf68"><path d="M -14.457031 75.792969 L 179.96875 19.183594 L 206.597656 110.636719 L 12.167969 167.246094 Z M -14.457031 75.792969 " clip-rule="nonzero"/></clipPath><clipPath id="6ab26f4c21"><path d="M -14.457031 75.792969 L 179.96875 19.183594 L 206.597656 110.636719 L 12.167969 167.246094 Z M -14.457031 75.792969 " clip-rule="nonzero"/></clipPath><clipPath id="bcecd64022"><path d="M 54 66 L 100 66 L 100 137 L 54 137 Z M 54 66 " clip-rule="nonzero"/></clipPath><clipPath id="79d7706ef6"><path d="M -14.457031 75.792969 L 179.96875 19.183594 L 206.597656 110.636719 L 12.167969 167.246094 Z M -14.457031 75.792969 " clip-rule="nonzero"/></clipPath><clipPath id="4e0c703f37"><path d="M -14.457031 75.792969 L 179.96875 19.183594 L 206.597656 110.636719 L 12.167969 167.246094 Z M -14.457031 75.792969 " clip-rule="nonzero"/></clipPath><clipPath id="e28f829dd7"><path d="M 68 54 L 120 54 L 120 134 L 68 134 Z M 68 54 " clip-rule="nonzero"/></clipPath><clipPath id="b639369ca7"><path d="M -14.457031 75.792969 L 179.96875 19.183594 L 206.597656 110.636719 L 12.167969 167.246094 Z M -14.457031 75.792969 " clip-rule="nonzero"/></clipPath><clipPath id="7098d5592f"><path d="M -14.457031 75.792969 L 179.96875 19.183594 L 206.597656 110.636719 L 12.167969 167.246094 Z M -14.457031 75.792969 " clip-rule="nonzero"/></clipPath><clipPath id="774a1442dc"><path d="M 87 50 L 134 50 L 134 122 L 87 122 Z M 87 50 " clip-rule="nonzero"/></clipPath><clipPath id="4abfafdd87"><path d="M -14.457031 75.792969 L 179.96875 19.183594 L 206.597656 110.636719 L 12.167969 167.246094 Z M -14.457031 75.792969 " clip-rule="nonzero"/></clipPath><clipPath id="22c9ad00dd"><path d="M -14.457031 75.792969 L 179.96875 19.183594 L 206.597656 110.636719 L 12.167969 167.246094 Z M -14.457031 75.792969 " clip-rule="nonzero"/></clipPath><clipPath id="1f1d78bc31"><path d="M 100 51 L 138 51 L 138 111 L 100 111 Z M 100 51 " clip-rule="nonzero"/></clipPath><clipPath id="aa6029770d"><path d="M -14.457031 75.792969 L 179.96875 19.183594 L 206.597656 110.636719 L 12.167969 167.246094 Z M -14.457031 75.792969 " clip-rule="nonzero"/></clipPath><clipPath id="840d3962dc"><path d="M -14.457031 75.792969 L 179.96875 19.183594 L 206.597656 110.636719 L 12.167969 167.246094 Z M -14.457031 75.792969 " clip-rule="nonzero"/></clipPath><clipPath id="dc481a4654"><path d="M 77 51 L 128 51 L 128 129 L 77 129 Z M 77 51 " clip-rule="nonzero"/></clipPath><clipPath id="ac412558ae"><path d="M -14.457031 75.792969 L 179.96875 19.183594 L 206.597656 110.636719 L 12.167969 167.246094 Z M -14.457031 75.792969 " clip-rule="nonzero"/></clipPath><clipPath id="a14b1a549a"><path d="M -14.457031 75.792969 L 179.96875 19.183594 L 206.597656 110.636719 L 12.167969 167.246094 Z M -14.457031 75.792969 " clip-rule="nonzero"/></clipPath><clipPath id="015266294d"><path d="M 60 59 L 111 59 L 111 137 L 60 137 Z M 60 59 " clip-rule="nonzero"/></clipPath><clipPath id="2bc9409dff"><path d="M -14.457031 75.792969 L 179.96875 19.183594 L 206.597656 110.636719 L 12.167969 167.246094 Z M -14.457031 75.792969 " clip-rule="nonzero"/></clipPath><clipPath id="8721907a47"><path d="M -14.457031 75.792969 L 179.96875 19.183594 L 206.597656 110.636719 L 12.167969 167.246094 Z M -14.457031 75.792969 " clip-rule="nonzero"/></clipPath><clipPath id="4090014c5e"><path d="M 51 77 L 88 77 L 88 137 L 51 137 Z M 51 77 " clip-rule="nonzero"/></clipPath><clipPath id="c338e91e74"><path d="M -14.457031 75.792969 L 179.96875 19.183594 L 206.597656 110.636719 L 12.167969 167.246094 Z M -14.457031 75.792969 " clip-rule="nonzero"/></clipPath><clipPath id="4d078efceb"><path d="M -14.457031 75.792969 L 179.96875 19.183594 L 206.597656 110.636719 L 12.167969 167.246094 Z M -14.457031 75.792969 " clip-rule="nonzero"/></clipPath></defs><g clip-path="url(#74b9aa744c)"><g clip-path="url(#80902e3dbf)"><g clip-path="url(#3e2813b616)"><path fill="#737373" d="M 186.910156 73.988281 C 191.867188 69.59375 184.769531 66.511719 176.082031 61.027344 C 183.175781 53.828125 186.890625 46.195312 184.175781 42.175781 C 181.519531 38.246094 172.644531 37.851562 162.460938 40.003906 C 160.425781 31.117188 160.898438 24.871094 154.863281 26.761719 C 137.976562 32.015625 122.246094 74.617188 123.660156 76.710938 C 125.082031 78.804688 174.136719 85.339844 186.910156 73.988281 " fill-opacity="1" fill-rule="nonzero"/></g></g></g><g clip-path="url(#51e92c3320)"><g clip-path="url(#76eccb601d)"><g clip-path="url(#5e848baac6)"><path fill="#ffffff" d="M 141.015625 66.234375 C 143.640625 60.25 147.089844 53.667969 150.550781 48.5 L 152.238281 55.949219 L 164.742188 53.316406 L 154.703125 63.507812 L 160.023438 66.867188 C 153.785156 67.027344 146.96875 66.769531 141.015625 66.234375 " fill-opacity="1" fill-rule="nonzero"/></g></g></g><g clip-path="url(#e3f37ef00b)"><g clip-path="url(#170f24f829)"><g clip-path="url(#2b4cf96170)"><path fill="#737373" d="M 32.761719 161.054688 C 26.4375 163.027344 27.472656 155.371094 27.265625 145.101562 C 17.429688 147.460938 8.964844 146.699219 6.929688 142.300781 C 4.945312 137.996094 9.175781 130.199219 16.28125 122.578125 C 9.699219 116.25 4.125 113.421875 8.851562 109.226562 C 22.0625 97.484375 66.675781 105.996094 67.746094 108.300781 C 68.804688 110.585938 49.078125 155.980469 32.761719 161.054688 " fill-opacity="1" fill-rule="nonzero"/></g></g></g><g clip-path="url(#a255e80736)"><g clip-path="url(#e9022babc4)"><g clip-path="url(#1270149d49)"><path fill="#ffffff" d="M 35.203125 122.058594 L 29.691406 116.765625 C 35.917969 116.476562 43.328125 116.910156 49.808594 117.746094 C 47.191406 123.128906 43.90625 129.113281 40.550781 134.359375 L 40.410156 128.066406 L 26.503906 131.40625 L 35.203125 122.058594 " fill-opacity="1" fill-rule="nonzero"/></g></g></g><g clip-path="url(#d87c5d22a8)"><g clip-path="url(#cb0d6a824f)"><g clip-path="url(#188a2af05b)"><path fill="#737373" d="M 131.695312 72.5 C 127.589844 65.238281 121.683594 59.625 114.867188 55.910156 L 137.210938 95.476562 C 137.539062 87.714844 135.800781 79.761719 131.695312 72.5 " fill-opacity="1" fill-rule="nonzero"/></g></g></g><g clip-path="url(#a4cf7435be)"><g clip-path="url(#464912bf68)"><g clip-path="url(#6ab26f4c21)"><path fill="#737373" d="M 56.769531 114.820312 C 60.589844 121.601562 65.992188 126.929688 72.242188 130.628906 L 51.207031 93.414062 C 51.164062 100.675781 52.949219 108.050781 56.769531 114.820312 " fill-opacity="1" fill-rule="nonzero"/></g></g></g><g clip-path="url(#bcecd64022)"><g clip-path="url(#79d7706ef6)"><g clip-path="url(#4e0c703f37)"><path fill="#737373" d="M 54.324219 77.621094 L 87.375 136.121094 C 91.429688 136.785156 95.582031 136.871094 99.71875 136.328125 L 60.507812 66.929688 C 57.933594 70.199219 55.847656 73.792969 54.324219 77.621094 " fill-opacity="1" fill-rule="nonzero"/></g></g></g><g clip-path="url(#e28f829dd7)"><g clip-path="url(#b639369ca7)"><g clip-path="url(#7098d5592f)"><path fill="#737373" d="M 73.066406 56.195312 C 71.378906 57.164062 69.789062 58.214844 68.273438 59.351562 L 110.214844 133.597656 C 111.964844 132.894531 113.707031 132.074219 115.382812 131.121094 C 116.835938 130.300781 118.222656 129.40625 119.539062 128.445312 L 77.496094 54.027344 C 76 54.65625 74.519531 55.386719 73.066406 56.195312 " fill-opacity="1" fill-rule="nonzero"/></g></g></g><g clip-path="url(#774a1442dc)"><g clip-path="url(#4abfafdd87)"><g clip-path="url(#22c9ad00dd)"><path fill="#737373" d="M 100.082031 51.039062 C 96.070312 50.492188 91.960938 50.5 87.875 51.101562 L 127.402344 121.058594 C 130.019531 117.882812 132.152344 114.371094 133.742188 110.644531 L 100.082031 51.039062 " fill-opacity="1" fill-rule="nonzero"/></g></g></g><g clip-path="url(#1f1d78bc31)"><g clip-path="url(#aa6029770d)"><g clip-path="url(#840d3962dc)"><path fill="#ffffff" d="M 137.210938 95.476562 L 114.867188 55.910156 C 110.273438 53.410156 105.25 51.765625 100.082031 51.039062 L 133.742188 110.644531 C 135.816406 105.855469 136.988281 100.703125 137.210938 95.476562 " fill-opacity="1" fill-rule="nonzero"/></g></g></g><g clip-path="url(#dc481a4654)"><g clip-path="url(#ac412558ae)"><g clip-path="url(#a14b1a549a)"><path fill="#ffffff" d="M 77.496094 54.027344 L 119.539062 128.445312 C 122.519531 126.28125 125.132812 123.804688 127.402344 121.058594 L 87.875 51.101562 C 84.371094 51.628906 80.882812 52.597656 77.496094 54.027344 " fill-opacity="1" fill-rule="nonzero"/></g></g></g><g clip-path="url(#015266294d)"><g clip-path="url(#2bc9409dff)"><g clip-path="url(#8721907a47)"><path fill="#ffffff" d="M 60.507812 66.929688 L 99.71875 136.328125 C 103.273438 135.882812 106.785156 134.964844 110.214844 133.597656 L 68.273438 59.351562 C 65.332031 61.574219 62.738281 64.121094 60.507812 66.929688 " fill-opacity="1" fill-rule="nonzero"/></g></g></g><g clip-path="url(#4090014c5e)"><g clip-path="url(#c338e91e74)"><g clip-path="url(#4d078efceb)"><path fill="#ffffff" d="M 51.207031 93.414062 L 72.242188 130.628906 C 76.902344 133.410156 82.046875 135.257812 87.375 136.121094 L 54.324219 77.621094 C 52.3125 82.621094 51.246094 87.980469 51.207031 93.414062 " fill-opacity="1" fill-rule="nonzero"/></g></g></g></svg>

<svg xmlns="http://www.w3.org/2000/svg" viewBox="0 0 192 192"><defs><clipPath id="a"><path d="M123 26h66v55h-66Zm0 0"/></clipPath><clipPath id="b"><path d="m-14.457 75.793 194.426-56.61 26.629 91.454-194.43 56.61Zm0 0"/></clipPath><clipPath id="c"><path d="m-14.457 75.793 194.426-56.61 26.629 91.454-194.43 56.61Zm0 0"/></clipPath><clipPath id="d"><path d="M141 48h24v19h-24Zm0 0"/></clipPath><clipPath id="e"><path d="m-14.457 75.793 194.426-56.61 26.629 91.454-194.43 56.61Zm0 0"/></clipPath><clipPath id="f"><path d="m-14.457 75.793 194.426-56.61 26.629 91.454-194.43 56.61Zm0 0"/></clipPath><clipPath id="g"><path d="M6 103h62v59H6Zm0 0"/></clipPath><clipPath id="h"><path d="m-14.457 75.793 194.426-56.61 26.629 91.454-194.43 56.61Zm0 0"/></clipPath><clipPath id="i"><path d="m-14.457 75.793 194.426-56.61 26.629 91.454-194.43 56.61Zm0 0"/></clipPath><clipPath id="j"><path d="M26 116h24v19H26Zm0 0"/></clipPath><clipPath id="k"><path d="m-14.457 75.793 194.426-56.61 26.629 91.454-194.43 56.61Zm0 0"/></clipPath><clipPath id="l"><path d="m-14.457 75.793 194.426-56.61 26.629 91.454-194.43 56.61Zm0 0"/></clipPath><clipPath id="m"><path d="M114 55h24v41h-24Zm0 0"/></clipPath><clipPath id="n"><path d="m-14.457 75.793 194.426-56.61 26.629 91.454-194.43 56.61Zm0 0"/></clipPath><clipPath id="o"><path d="m-14.457 75.793 194.426-56.61 26.629 91.454-194.43 56.61Zm0 0"/></clipPath><clipPath id="p"><path d="M51 93h22v38H51Zm0 0"/></clipPath><clipPath id="q"><path d="m-14.457 75.793 194.426-56.61 26.629 91.454-194.43 56.61Zm0 0"/></clipPath><clipPath id="r"><path d="m-14.457 75.793 194.426-56.61 26.629 91.454-194.43 56.61Zm0 0"/></clipPath><clipPath id="s"><path d="M54 66h46v71H54Zm0 0"/></clipPath><clipPath id="t"><path d="m-14.457 75.793 194.426-56.61 26.629 91.454-194.43 56.61Zm0 0"/></clipPath><clipPath id="u"><path d="m-14.457 75.793 194.426-56.61 26.629 91.454-194.43 56.61Zm0 0"/></clipPath><clipPath id="v"><path d="M68 54h52v80H68Zm0 0"/></clipPath><clipPath id="w"><path d="m-14.457 75.793 194.426-56.61 26.629 91.454-194.43 56.61Zm0 0"/></clipPath><clipPath id="x"><path d="m-14.457 75.793 194.426-56.61 26.629 91.454-194.43 56.61Zm0 0"/></clipPath><clipPath id="y"><path d="M87 50h47v72H87Zm0 0"/></clipPath><clipPath id="z"><path d="m-14.457 75.793 194.426-56.61 26.629 91.454-194.43 56.61Zm0 0"/></clipPath><clipPath id="A"><path d="m-14.457 75.793 194.426-56.61 26.629 91.454-194.43 56.61Zm0 0"/></clipPath><clipPath id="B"><path d="M100 51h38v60h-38Zm0 0"/></clipPath><clipPath id="C"><path d="m-14.457 75.793 194.426-56.61 26.629 91.454-194.43 56.61Zm0 0"/></clipPath><clipPath id="D"><path d="m-14.457 75.793 194.426-56.61 26.629 91.454-194.43 56.61Zm0 0"/></clipPath><clipPath id="E"><path d="M77 51h51v78H77Zm0 0"/></clipPath><clipPath id="F"><path d="m-14.457 75.793 194.426-56.61 26.629 91.454-194.43 56.61Zm0 0"/></clipPath><clipPath id="G"><path d="m-14.457 75.793 194.426-56.61 26.629 91.454-194.43 56.61Zm0 0"/></clipPath><clipPath id="H"><path d="M60 59h51v78H60Zm0 0"/></clipPath><clipPath id="I"><path d="m-14.457 75.793 194.426-56.61 26.629 91.454-194.43 56.61Zm0 0"/></clipPath><clipPath id="J"><path d="m-14.457 75.793 194.426-56.61 26.629 91.454-194.43 56.61Zm0 0"/></clipPath><clipPath id="K"><path d="M51 77h37v60H51Zm0 0"/></clipPath><clipPath id="L"><path d="m-14.457 75.793 194.426-56.61 26.629 91.454-194.43 56.61Zm0 0"/></clipPath><clipPath id="M"><path d="m-14.457 75.793 194.426-56.61 26.629 91.454-194.43 56.61Zm0 0"/></clipPath></defs><g clip-path="url(#a)"><g clip-path="url(#b)"><g clip-path="url(#c)"><path fill="#737373" d="M186.91 73.988c4.957-4.394-2.14-7.476-10.828-12.96 7.094-7.2 10.809-14.833 8.094-18.852-2.656-3.93-11.531-4.324-21.715-2.172-2.035-8.887-1.563-15.133-7.598-13.242-16.886 5.254-32.617 47.855-31.203 49.949 1.422 2.094 50.477 8.629 63.25-2.723"/></g></g></g><g clip-path="url(#d)"><g clip-path="url(#e)"><g clip-path="url(#f)"><path fill="#fff" d="M141.016 66.234c2.625-5.984 6.074-12.566 9.535-17.734l1.687 7.45 12.504-2.634-10.039 10.192 5.32 3.36c-6.238.16-13.054-.098-19.007-.634"/></g></g></g><g clip-path="url(#g)"><g clip-path="url(#h)"><g clip-path="url(#i)"><path fill="#737373" d="M32.762 161.055c-6.324 1.972-5.29-5.684-5.496-15.953-9.836 2.359-18.301 1.597-20.336-2.801-1.985-4.305 2.246-12.102 9.351-19.723-6.582-6.328-12.156-9.156-7.43-13.351 13.212-11.743 57.825-3.23 58.895-.926 1.059 2.285-18.668 47.68-34.984 52.754"/></g></g></g><g clip-path="url(#j)"><g clip-path="url(#k)"><g clip-path="url(#l)"><path fill="#fff" d="m35.203 122.059-5.512-5.293c6.227-.29 13.637.144 20.118.98-2.618 5.383-5.903 11.367-9.258 16.613l-.14-6.293-13.907 3.34z"/></g></g></g><g clip-path="url(#m)"><g clip-path="url(#n)"><g clip-path="url(#o)"><path fill="#737373" d="M131.695 72.5a42.84 42.84 0 0 0-16.828-16.59l22.344 39.567c.328-7.762-1.41-15.715-5.516-22.977"/></g></g></g><g clip-path="url(#p)"><g clip-path="url(#q)"><g clip-path="url(#r)"><path fill="#737373" d="M56.77 114.82a42.6 42.6 0 0 0 15.472 15.809L51.207 93.414a42.9 42.9 0 0 0 5.563 21.406"/></g></g></g><g clip-path="url(#s)"><g clip-path="url(#t)"><g clip-path="url(#u)"><path fill="#737373" d="m54.324 77.621 33.051 58.5c4.055.664 8.207.75 12.344.207L60.508 66.93a43 43 0 0 0-6.184 10.691"/></g></g></g><g clip-path="url(#v)"><g clip-path="url(#w)"><g clip-path="url(#x)"><path fill="#737373" d="M73.066 56.195a47 47 0 0 0-4.793 3.157l41.942 74.246a42.6 42.6 0 0 0 9.324-5.153L77.496 54.027a45 45 0 0 0-4.43 2.168"/></g></g></g><g clip-path="url(#y)"><g clip-path="url(#z)"><g clip-path="url(#A)"><path fill="#737373" d="M100.082 51.04a43.5 43.5 0 0 0-12.207.062l39.527 69.957a42.8 42.8 0 0 0 6.34-10.414z"/></g></g></g><g clip-path="url(#B)"><g clip-path="url(#C)"><g clip-path="url(#D)"><path fill="#fff" d="M137.21 95.477 114.868 55.91a43.7 43.7 0 0 0-14.785-4.87l33.66 59.605a42.8 42.8 0 0 0 3.469-15.168"/></g></g></g><g clip-path="url(#E)"><g clip-path="url(#F)"><g clip-path="url(#G)"><path fill="#fff" d="m77.496 54.027 42.043 74.418a42.8 42.8 0 0 0 7.863-7.386L87.875 51.102a43.2 43.2 0 0 0-10.379 2.925"/></g></g></g><g clip-path="url(#H)"><g clip-path="url(#I)"><g clip-path="url(#J)"><path fill="#fff" d="m60.508 66.93 39.21 69.398c3.555-.445 7.067-1.363 10.497-2.73L68.273 59.352a43 43 0 0 0-7.765 7.578"/></g></g></g><g clip-path="url(#K)"><g clip-path="url(#L)"><g clip-path="url(#M)"><path fill="#fff" d="m51.207 93.414 21.035 37.215a42.9 42.9 0 0 0 15.133 5.492l-33.05-58.5a43.2 43.2 0 0 0-3.118 15.793"/></g></g></g></svg>
